24x24/apps/4kyoutubetomp3.svg

<svg xmlns="http://www.w3.org/2000/svg" width="24" height="24" version="1">
 <path style="opacity:0.2" d="M 13.75,5 A 5.25,5.25 0 0 0 9.2753905,7.511719 3.5,3.5 0 0 0 6.036133,10.524414 4.5,4.5 0 0 0 2,15 4.5,4.5 0 0 0 6.5,19.5 h 12 A 4.5,4.5 0 0 0 23,15 4.5,4.5 0 0 0 18.990234,10.532227 5.25,5.25 0 0 0 19,10.25 5.25,5.25 0 0 0 13.75,5 Z"/>
 <circle style="fill:#678dfd" cx="-18.5" cy="14.5" r="4.5" transform="scale(-1,1)"/>
 <circle style="fill:#678dfd" cx="-13.75" cy="9.25" r="5.25" transform="scale(-1,1)"/>
 <circle style="fill:#678dfd" cx="-9.5" cy="10.5" r="3.5" transform="scale(-1,1)"/>
 <circle style="fill:#678dfd" cx="-6.5" cy="14.5" r="4.5" transform="scale(-1,1)"/>
 <rect style="fill:#678dfd" width="12" height="6" x="-18.5" y="13" transform="scale(-1,1)"/>
 <path style="opacity:0.2;fill:#f4f4f7" d="M 13.75,4 C 11.708251,4.0026439 9.8532237,5.1887949 8.9941406,7.0410156 7.4538626,7.2670353 6.2480073,8.4832381 6.0351562,10.025391 3.7426775,10.263474 2.0006749,12.195192 2,14.5 c 0.00184,0.06517 0.0051,0.130286 0.00977,0.195312 C 2.1586627,12.511246 3.857699,10.751207 6.0351562,10.525391 6.2480073,8.9832381 7.4538626,7.7670353 8.9941406,7.5410156 9.8532237,5.6887949 11.708251,4.5026439 13.75,4.5 c 2.812391,0.00279 5.123052,2.2213001 5.240234,5.03125 C 18.996002,9.4376041 18.999258,9.3438204 19,9.25 19,6.3505051 16.649495,4 13.75,4 Z m 5.238281,6.033203 c -0.0092,0.16477 -0.02613,0.329015 -0.05078,0.492188 2.222064,0.220467 3.94636,2.037047 4.050781,4.267578 0.0071,-0.0975 0.011,-0.195211 0.01172,-0.292969 -0.0034,-2.293765 -1.731494,-4.21791 -4.011719,-4.466797 z"/>
 <path style="opacity:0.2" d="M 9.997102,10.00015 V 14.588 C 9.836878,14.53047 9.668036,14.50071 9.497827,14.5 8.6706,14.5 8,15.171573 8,16 c 0,0.828427 0.6706,1.5 1.497827,1.5 0.827226,0 1.497826,-0.671573 1.497826,-1.5 v -4.25 l 3.994203,-1.25 v 3.0879 c -0.160224,-0.05753 -0.329066,-0.08729 -0.499275,-0.088 -0.827227,0 -1.497826,0.671573 -1.497826,1.5 0,0.828427 0.670599,1.5 1.497826,1.5 0.827226,0 1.614814,-0.679899 1.497826,-1.5 V 7.99995 l -5.991305,2 z"/>
 <path style="fill:#f4f4f7" d="M 9.997102,9.50015 V 14.088 C 9.836878,14.03047 9.668036,14.00071 9.497827,14 8.6706,14 8,14.671573 8,15.5 8,16.328427 8.6706,17 9.497827,17 c 0.827226,0 1.497826,-0.671573 1.497826,-1.5 V 11.25 L 14.989856,10 v 3.0879 c -0.160224,-0.05753 -0.329066,-0.08729 -0.499275,-0.088 -0.827227,0 -1.497826,0.671573 -1.497826,1.5 0,0.828427 0.670599,1.5 1.497826,1.5 0.827226,0 1.614814,-0.679899 1.497826,-1.5 V 7.49995 l -5.991305,2 z"/>
</svg>

<svg xmlns="http://www.w3.org/2000/svg" width="24" height="24" version="1"><path style="opacity:.2" d="M13.75 5a5.25 5.25 0 0 0-4.475 2.512 3.5 3.5 0 0 0-3.239 3.012A4.5 4.5 0 0 0 2 15a4.5 4.5 0 0 0 4.5 4.5h12A4.5 4.5 0 0 0 23 15a4.5 4.5 0 0 0-4.01-4.468 5.25 5.25 0 0 0 .01-.282A5.25 5.25 0 0 0 13.75 5z"/><circle style="fill:#678dfd" cx="-18.5" cy="14.5" r="4.5" transform="scale(-1 1)"/><circle style="fill:#678dfd" cx="-13.75" cy="9.25" r="5.25" transform="scale(-1 1)"/><circle style="fill:#678dfd" cx="-9.5" cy="10.5" r="3.5" transform="scale(-1 1)"/><circle style="fill:#678dfd" cx="-6.5" cy="14.5" r="4.5" transform="scale(-1 1)"/><path style="fill:#678dfd" transform="scale(-1 1)" d="M-18.5 13h12v6h-12z"/><path style="opacity:.2;fill:#f4f4f7" d="M13.75 4a5.25 5.25 0 0 0-4.756 3.041 3.5 3.5 0 0 0-2.959 2.984A4.5 4.5 0 0 0 2 14.5a4.5 4.5 0 0 0 .01.195 4.5 4.5 0 0 1 4.025-4.17 3.5 3.5 0 0 1 2.96-2.984A5.25 5.25 0 0 1 13.75 4.5a5.25 5.25 0 0 1 5.24 5.031A5.25 5.25 0 0 0 13.75 4zm5.238 6.033c-.009.165-.026.33-.05.492a4.5 4.5 0 0 1 4.05 4.268A4.49 4.49 0 0 0 23 14.5a4.5 4.5 0 0 0-4.012-4.467z"/><path style="opacity:.2" d="M9.997 10v4.588a1.496 1.496 0 0 0-.5-.088C8.672 14.5 8 15.172 8 16a1.499 1.499 0 1 0 2.996 0v-4.25l3.994-1.25v3.088a1.496 1.496 0 0 0-.5-.088c-.827 0-1.497.671-1.497 1.5 0 .828.67 1.5 1.498 1.5.827 0 1.614-.68 1.497-1.5V8l-5.99 2z"/><path style="fill:#f4f4f7" d="M9.997 9.5v4.588a1.496 1.496 0 0 0-.5-.088C8.672 14 8 14.672 8 15.5a1.499 1.499 0 1 0 2.996 0v-4.25L14.99 10v3.088a1.496 1.496 0 0 0-.5-.088c-.827 0-1.497.671-1.497 1.5 0 .828.67 1.5 1.498 1.5.827 0 1.614-.68 1.497-1.5v-7l-5.99 2z"/></svg>
